fs/arrow_circle_down_split_24_regular.svg

<svg viewBox="0 0 24 24" fill="none" xmlns="http://www.w3.org/2000/svg" height="1em" width="1em">
  <path d="M10.9999 13.9984L10.9158 13.9257C10.6222 13.7079 10.2055 13.7321 9.93924 13.9984L9.5003 14.4373L9.50006 10.4988L14.4998 10.4988L14.5 14.4392L13.988 13.9986L13.9039 13.9259C13.6103 13.708 13.1937 13.7322 12.9273 13.9984C12.6344 14.2912 12.6343 14.7661 12.9271 15.059L14.7185 16.7793L14.8026 16.8519C15.0962 17.0698 15.5129 17.0457 15.7792 16.7794L17.4993 15.0592L17.572 14.9751C17.7898 14.6815 17.7656 14.2648 17.4993 13.9986L17.4152 13.9259C17.1216 13.7081 16.7049 13.7323 16.4387 13.9986L16 14.4372L15.9997 9.7475L15.9929 9.64573C15.9432 9.27965 15.6294 8.9975 15.2497 8.9975L15.2307 8.99878H12.7497L12.7494 5.7475L12.7426 5.64573C12.6929 5.27965 12.3791 4.9975 11.9994 4.9975L11.8977 5.00434C11.5316 5.05401 11.2494 5.3678 11.2494 5.7475L11.2497 8.99878H8.79317C8.77888 8.99797 8.76449 8.99756 8.75 8.99756L8.64823 9.00441C8.28215 9.05407 8 9.36786 8 9.74756L8.0003 14.4393L7.56066 13.9984L7.47655 13.9257C7.18299 13.7078 6.76632 13.732 6.5 13.9982C6.20705 14.291 6.20696 14.7659 6.4998 15.0588L8.21875 16.7793L8.30286 16.852C8.59647 17.0699 9.01321 17.0457 9.27951 16.7794L10.9999 15.059L11.0725 14.9749C11.2904 14.6813 11.2662 14.2646 10.9999 13.9984ZM1.99902 11.998C1.99902 17.5209 6.47617 21.998 11.999 21.998C17.5219 21.998 21.999 17.5209 21.999 11.998C21.999 6.4752 17.5219 1.99805 11.999 1.99805C6.47618 1.99805 1.99902 6.4752 1.99902 11.998ZM20.499 11.998C20.499 16.6925 16.6934 20.498 11.999 20.498C7.3046 20.498 3.49902 16.6925 3.49902 11.998C3.49902 7.30363 7.3046 3.49805 11.999 3.49805C16.6934 3.49805 20.499 7.30363 20.499 11.998Z" fill="#212121"/>
</svg>

<svg viewBox="0 0 24 24" fill="none" xmlns="http://www.w3.org/2000/svg" height="1em" width="1em">
  <path d="m11 13.998-.084-.072a.75.75 0 0 0-.977.072l-.439.44v-3.94h5v3.941l-.512-.44-.084-.073a.75.75 0 0 0-.977 1.133l1.792 1.72.084.073a.75.75 0 0 0 .976-.073l1.72-1.72.073-.084a.75.75 0 0 0-.073-.976l-.084-.073a.75.75 0 0 0-.976.073l-.439.438v-4.69l-.007-.101a.75.75 0 0 0-.743-.649L15.23 9h-2.48V5.747l-.007-.101a.75.75 0 0 0-.744-.649l-.101.007a.75.75 0 0 0-.649.744v3.25H8.794a.763.763 0 0 0-.043 0l-.102.006A.75.75 0 0 0 8 9.748v4.691L7.56 14l-.083-.073A.75.75 0 0 0 6.5 15.06l1.719 1.72.084.073a.75.75 0 0 0 .977-.073L11 15.06l.072-.084a.75.75 0 0 0-.072-.977Zm-9.001-2c0 5.523 4.477 10 10 10s10-4.477 10-10-4.477-10-10-10-10 4.477-10 10Zm18.5 0a8.5 8.5 0 1 1-17 0 8.5 8.5 0 0 1 17 0Z" fill="#212121"/>
</svg>
